images/icons/razor.svg

<svg width="64" height="64" fill="none" xmlns="http://www.w3.org/2000/svg"><path d="M2.832 7.445A5.724 5.724 0 007.605 10h1.42C9.014 9.84 9 9.68 9 9.518a2.518 2.518 0 014.719-1.223c.293.528.613 1.041.916 1.564l5.488-1.22a26.84 26.84 0 019.906-.327l.011.002A145.063 145.063 0 0052.089 10H62v3h-1v4a2 2 0 01-2 2h-4.658C45.476 19 36.639 17.994 28 16v1l-1.632-.544A2 2 0 0125 14.558V11c-2.66 0-5.314.263-7.922.784L16 12l-.098.021a96.747 96.747 0 007.701 10.783 130.748 130.748 0 0018.663 18.507l9.049 7.325A4.544 4.544 0 0153 52.168v.288a4.543 4.543 0 01-7.185 3.698l-4.59-3.279a89.89 89.89 0 01-29.901-36.646l-1.722-3.875c-.051-.116-.091-.236-.136-.354H7.605a7.724 7.724 0 01-6.438-3.445l1.665-1.11zM48 54c1.103 0 2-.897 2-2s-.897-2-2-2-2 .897-2 2 .897 2 2 2zM12 12a1 1 0 100-2 1 1 0 000 2z" fill="#AC9374"/></svg>

<svg width="64" height="64" viewBox="0 0 64 64" fill="none" xmlns="http://www.w3.org/2000/svg">
<path d="M2.832 7.445C3.898 9.045 5.683 10 7.605 10H9.025C9.014 9.84 9 9.68 9 9.518C9 8.127 10.127 7 11.518 7C12.433 7 13.275 7.496 13.719 8.295C14.012 8.823 14.332 9.336 14.635 9.859L20.123 8.639C22.035 8.214 23.988 8 25.947 8C27.314 8 28.678 8.104 30.029 8.312L30.04 8.314C37.336 9.436 44.707 10 52.089 10H62V13H61V17C61 18.105 60.105 19 59 19H54.342C45.476 19 36.639 17.994 28 16V17L26.368 16.456C25.551 16.184 25 15.419 25 14.558V11C22.34 11 19.686 11.263 17.078 11.784L16 12L15.902 12.021C18.219 15.785 20.791 19.389 23.603 22.804C29.187 29.584 35.439 35.785 42.266 41.311L51.315 48.636C52.381 49.499 53 50.797 53 52.168V52.456C53 54.966 50.966 57 48.456 57C47.509 57 46.586 56.704 45.815 56.154L41.225 52.875C35.759 48.971 30.748 44.466 26.285 39.445C20.132 32.523 15.086 24.692 11.324 16.229L9.602 12.354C9.551 12.238 9.511 12.118 9.466 12H7.605C5.012 12 2.606 10.712 1.167 8.555L2.832 7.445ZM48 54C49.103 54 50 53.103 50 52C50 50.897 49.103 50 48 50C46.897 50 46 50.897 46 52C46 53.103 46.897 54 48 54ZM12 12C12.552 12 13 11.552 13 11C13 10.448 12.552 10 12 10C11.448 10 11 10.448 11 11C11 11.552 11.448 12 12 12Z" fill="#AC9374"/>
</svg>
